icons/svg/topo/topo_buddhist.svg

<?xml version="1.0" encoding="UTF-8" standalone="no"?>
<!-- Created with Inkscape (http://www.inkscape.org/) -->

<svg
   xmlns:dc="http://purl.org/dc/elements/1.1/"
   xmlns:cc="http://creativecommons.org/ns#"
   xmlns:rdf="http://www.w3.org/1999/02/22-rdf-syntax-ns#"
   xmlns:svg="http://www.w3.org/2000/svg"
   xmlns="http://www.w3.org/2000/svg"
   xmlns:sodipodi="http://sodipodi.sourceforge.net/DTD/sodipodi-0.dtd"
   xmlns:inkscape="http://www.inkscape.org/namespaces/inkscape"
   version="1.0"
   width="580"
   height="580"
   id="svg2"
   sodipodi:version="0.32"
   inkscape:version="0.91 r"
   sodipodi:docname="topo_buddhist.svg"
   inkscape:output_extension="org.inkscape.output.svg.inkscape">
  <metadata
     id="metadata2975">
    <rdf:RDF>
      <cc:Work
         rdf:about="">
        <dc:format>image/svg+xml</dc:format>
        <dc:type
           rdf:resource="http://purl.org/dc/dcmitype/StillImage" />
        <cc:license
           rdf:resource="http://web.resource.org/cc/PublicDomain" />
        <dc:language>en</dc:language>
      </cc:Work>
    </rdf:RDF>
  </metadata>
  <sodipodi:namedview
     inkscape:window-height="1051"
     inkscape:window-width="1920"
     inkscape:pageshadow="2"
     inkscape:pageopacity="0.0"
     guidetolerance="10.0"
     gridtolerance="10.0"
     objecttolerance="10.0"
     borderopacity="1.0"
     bordercolor="#666666"
     pagecolor="#ffffff"
     id="base"
     inkscape:zoom="0.92167712"
     inkscape:cx="216.4108"
     inkscape:cy="336.60995"
     inkscape:window-x="0"
     inkscape:window-y="0"
     inkscape:current-layer="svg2"
     showgrid="false"
     inkscape:window-maximized="1" />
  <defs
     id="defs4">
    <inkscape:perspective
       sodipodi:type="inkscape:persp3d"
       inkscape:vp_x="0 : 290 : 1"
       inkscape:vp_y="0 : 1000 : 0"
       inkscape:vp_z="580 : 290 : 1"
       inkscape:persp3d-origin="290 : 193.33333 : 1"
       id="perspective2441" />
    <inkscape:perspective
       id="perspective2466"
       inkscape:persp3d-origin="372.04724 : 350.78739 : 1"
       inkscape:vp_z="744.09448 : 526.18109 : 1"
       inkscape:vp_y="0 : 1000 : 0"
       inkscape:vp_x="0 : 526.18109 : 1"
       sodipodi:type="inkscape:persp3d" />
    <inkscape:perspective
       id="perspective3333"
       inkscape:persp3d-origin="372.04724 : 350.78739 : 1"
       inkscape:vp_z="744.09448 : 526.18109 : 1"
       inkscape:vp_y="0 : 1000 : 0"
       inkscape:vp_x="0 : 526.18109 : 1"
       sodipodi:type="inkscape:persp3d" />
    <inkscape:perspective
       id="perspective3401"
       inkscape:persp3d-origin="372.04724 : 350.78739 : 1"
       inkscape:vp_z="744.09448 : 526.18109 : 1"
       inkscape:vp_y="0 : 1000 : 0"
       inkscape:vp_x="0 : 526.18109 : 1"
       sodipodi:type="inkscape:persp3d" />
    <inkscape:perspective
       id="perspective3464"
       inkscape:persp3d-origin="372.04724 : 350.78739 : 1"
       inkscape:vp_z="744.09448 : 526.18109 : 1"
       inkscape:vp_y="0 : 1000 : 0"
       inkscape:vp_x="0 : 526.18109 : 1"
       sodipodi:type="inkscape:persp3d" />
    <inkscape:perspective
       id="perspective3581"
       inkscape:persp3d-origin="225 : 150 : 1"
       inkscape:vp_z="450 : 225 : 1"
       inkscape:vp_y="0 : 1000 : 0"
       inkscape:vp_x="0 : 225 : 1"
       sodipodi:type="inkscape:persp3d" />
    <inkscape:perspective
       id="perspective4312"
       inkscape:persp3d-origin="225 : 150 : 1"
       inkscape:vp_z="450 : 225 : 1"
       inkscape:vp_y="0 : 1000 : 0"
       inkscape:vp_x="0 : 225 : 1"
       sodipodi:type="inkscape:persp3d" />
  </defs>
  <g
     id="g1327">
    <path
       d="M 66.275,1.768 C 24.94,1.768 1.704,23.139 1.704,66.804 L 1.704,516.927 C 1.704,557.771 22.599,579.156 63.896,579.156 L 515.92,579.156 C 557.227,579.156 578.149,558.841 578.149,516.927 L 578.149,66.804 C 578.149,24.203 557.227,1.768 514.628,1.768 C 514.624,1.768 66.133,1.625 66.275,1.768 z "
       style="fill:#111;stroke:#eee;stroke-width:3.40799999"
       id="path1329" />
  </g>
  <path
     style="opacity:1;fill:#ffffff"
     d="m 269.23025,530.68008 c -4.5166,-4.51657 -6.89072,-11.4845 -6.89072,-20.22385 l 0,-13.33318 -19.98958,-3.9327 C 164.78228,477.92984 96.178409,397.52574 79.531342,314.21224 c -5.077339,-0.39195 -7.884721,-0.5895 -13.250208,-0.5895 -16.780768,0 -27.889655,-11.19753 -27.889655,-28.11224 0,-15.37495 9.45057,-24.36884 26.697703,-25.40755 l 12.923879,-0.77834 6.099621,-23.66995 C 94.289008,196.16497 109.39938,170.1856 139.9905,139.58347 171.34372,108.219 197.58656,92.468076 235.47164,83.081999 c 11.51091,-2.85185 12.39481,-0.652111 25.35203,-3.542612 1.71186,-17.999467 0.15235,-38.073748 27.67168,-37.130138 21.75129,0.758808 23.82777,14.04016 23.91748,36.077605 7.45954,0.730974 9.88101,0.951407 22.79392,3.606646 77.64144,15.965118 147.36354,86.01055 160.96833,164.34482 2.15326,12.39793 3.30904,13.6734 11.51321,12.70545 10.82952,-1.27766 28.56941,7.15382 31.58477,15.01173 7.46874,19.4633 -3.48063,36.18719 -25.64018,39.16236 -14.50737,1.9478 -15.19544,2.5783 -17.48838,16.02589 -3.59109,21.06083 -17.68239,53.31253 -33.41584,76.48102 -27.72987,40.83408 -70.95822,71.21921 -121.14598,85.15336 l -25.84015,7.17429 -1.11575,13.6798 c -0.61369,7.52392 -3.56717,16.39304 -6.56337,19.70919 -7.66743,8.48628 -29.9805,7.99133 -38.83316,-0.86133 z m -6.89072,-132.64615 c 0,-23.68681 -1.19702,-43.06693 -2.66009,-43.06693 -1.46305,0 -15.75957,13.16788 -31.77003,29.26194 -16.11331,16.19744 -25.21221,26.14349 -28.59436,31.02553 4.16899,3.05243 11.48728,11.28015 29.80141,18.80909 15.3454,6.30846 27.99309,8.11556 33.78148,8.98848 -0.95715,-7.1978 -0.55841,-17.99372 -0.55841,-45.01811 z m 103.46833,27.93786 14.99681,-9.24554 -30.73656,-30.87962 C 333.163,368.86284 318.13643,354.967 316.6757,354.967 c -1.46073,0 -2.65586,19.57392 -2.65586,43.49759 l 0,43.49761 18.39562,-3.37245 c 6.15857,-1.22972 21.18513,-6.9078 33.3924,-12.61796 z m -172.40072,-82.2022 31.92463,-30.14685 -45.61861,0 -45.61862,0 2.33575,12.45065 c 2.6718,14.2419 19.45594,50.10121 22.81565,48.74553 1.2301,-0.49638 16.60263,-14.46856 34.1612,-31.04933 z m 240.61509,8.06296 c 5.39198,-11.84341 7.73568,-21.62974 8.91259,-26.84083 l 2.13977,-11.36898 -45.64475,0 -45.64474,0 30.86452,31.00818 c 16.97549,17.0545 32.14112,31.00821 33.70138,31.00821 1.56027,0 10.27928,-11.96317 15.67123,-23.80658 z M 301.09549,317.76853 c 5.92548,-3.06416 15.65153,-13.27667 18.52086,-20.14391 4.57333,-10.94552 1.77435,-22.52984 -6.81557,-31.94824 -13.69855,-15.01974 -31.49368,-15.10972 -46.69345,-0.78784 -14.83236,13.97567 -11.20095,33.38304 -2.77934,43.23834 9.65892,11.30321 25.28844,16.09483 37.7675,9.64165 z m -80.10022,-59.3433 c 0,-0.987 -13.73945,-15.47029 -30.53212,-32.18515 l -30.5321,-30.39065 -7.34913,11.89108 c -8.2562,13.35882 -13.55312,27.79058 -18.09937,52.56585 2.27312,0.31997 5.99652,-0.0866 43.44579,-0.0866 23.68681,0 43.06693,-0.80752 43.06693,-1.79452 z m 221.26119,-7.48401 c -0.55701,-4.5321 -3.22378,-18.40925 -8.79502,-30.83246 -5.62909,-12.55223 -14.16796,-23.62808 -15.66151,-23.62808 -2.4911,0 -62.43562,59.4723 -62.43638,61.94455 -3.2e-4,0.987 19.76741,1.47196 43.92828,1.07771 43.51561,-0.71006 43.91974,-0.79058 42.96463,-8.56172 z m -179.91693,-75.19831 0,-44.85524 -9.47474,2.13978 c -17.26655,0.75556 -53.38045,20.7185 -52.54165,24.44381 0.52658,2.33861 58.76366,63.1269 61.08321,63.1269 0.51326,0 0.93318,-20.18485 0.93318,-44.85525 z m 94.40343,-33.27528 c -12.86715,-6.03999 -27.64968,-8.05673 -32.38706,-8.64906 l -8.61337,-1.07695 -0.95705,44.78961 -0.95709,44.78961 32.96529,-32.73087 32.96526,-32.73087 -23.01598,-14.39147 z"
     id="path5316"
     sodipodi:nodetypes="cccccsscccsscscssssssscccsccsscscccccscccccccccscccccccsccssssccccccsccssssccccssccccccccc"
     inkscape:connector-curvature="0" />
</svg>

<svg width="580" height="580" viewBox="0 0 580 580" fill="none" xmlns="http://www.w3.org/2000/svg">
<g clip-path="url(#clip0)">
<path d="M66.2751 1.7679C24.9401 1.7679 1.7041 23.1389 1.7041 66.8039V516.927C1.7041 557.771 22.5991 579.156 63.8961 579.156H515.92C557.227 579.156 578.149 558.841 578.149 516.927V66.8039C578.149 24.2029 557.227 1.7679 514.628 1.7679C514.624 1.7679 66.1331 1.6249 66.2751 1.7679Z" fill="#111111" stroke="#EEEEEE" stroke-width="3.408"/>
<path d="M269.23 530.68C264.714 526.163 262.34 519.196 262.34 510.456V497.123L242.35 493.19C164.782 477.93 96.1785 397.526 79.5315 314.212C74.4541 313.82 71.6467 313.623 66.2813 313.623C49.5005 313.623 38.3916 302.425 38.3916 285.51C38.3916 270.136 47.8422 261.142 65.0893 260.103L78.0132 259.325L84.1128 235.655C94.2891 196.165 109.399 170.186 139.991 139.583C171.344 108.219 197.587 92.4681 235.472 83.082C246.983 80.2301 247.867 82.4299 260.824 79.5394C262.536 61.5399 260.976 41.4656 288.495 42.4092C310.247 43.168 312.323 56.4494 312.413 78.4868C319.873 79.2178 322.294 79.4382 335.207 82.0935C412.848 98.0586 482.57 168.104 496.175 246.438C498.328 258.836 499.484 260.112 507.688 259.144C518.518 257.866 536.258 266.298 539.273 274.155C546.742 293.619 535.793 310.343 513.633 313.318C499.126 315.266 498.438 315.896 496.145 329.344C492.554 350.405 478.462 382.656 462.729 405.825C434.999 446.659 391.771 477.044 341.583 490.978L315.743 498.152L314.627 511.832C314.013 519.356 311.06 528.225 308.064 531.541C300.396 540.028 278.083 539.533 269.23 530.68V530.68ZM262.34 398.034C262.34 374.347 261.143 354.967 259.68 354.967C258.217 354.967 243.92 368.135 227.91 384.229C211.796 400.426 202.697 410.372 199.315 415.254C203.484 418.307 210.802 426.535 229.117 434.064C244.462 440.372 257.11 442.179 262.898 443.052C261.941 435.854 262.34 425.058 262.34 398.034ZM365.808 425.972L380.805 416.726L350.068 385.847C333.163 368.863 318.137 354.967 316.676 354.967C315.215 354.967 314.02 374.541 314.02 398.465V441.962L332.416 438.59C338.574 437.36 353.601 431.682 365.808 425.972V425.972ZM193.407 343.77L225.332 313.623H179.713H134.095L136.43 326.073C139.102 340.315 155.886 376.175 159.246 374.819C160.476 374.323 175.849 360.35 193.407 343.77V343.77ZM434.022 351.833C439.414 339.989 441.758 330.203 442.935 324.992L445.075 313.623H399.43H353.785L384.65 344.631C401.625 361.685 416.791 375.639 418.351 375.639C419.911 375.639 428.63 363.676 434.022 351.833V351.833ZM301.096 317.769C307.021 314.704 316.747 304.492 319.616 297.625C324.19 286.679 321.391 275.095 312.801 265.676C299.102 250.657 281.307 250.567 266.107 264.889C251.275 278.864 254.907 298.272 263.328 308.127C272.987 319.43 288.617 324.222 301.096 317.769V317.769ZM220.995 258.425C220.995 257.438 207.256 242.955 190.463 226.24L159.931 195.849L152.582 207.74C144.326 221.099 139.029 235.531 134.483 260.306C136.756 260.626 140.479 260.22 177.928 260.22C201.615 260.22 220.995 259.412 220.995 258.425V258.425ZM442.257 250.941C441.7 246.409 439.033 232.532 433.462 220.109C427.832 207.557 419.294 196.481 417.8 196.481C415.309 196.481 355.364 255.953 355.364 258.425C355.363 259.412 375.131 259.897 399.292 259.503C442.808 258.793 443.212 258.712 442.257 250.941V250.941ZM262.34 175.743V130.888L252.865 133.027C235.598 133.783 199.484 153.746 200.323 157.471C200.85 159.81 259.087 220.598 261.406 220.598C261.92 220.598 262.34 200.413 262.34 175.743ZM356.743 142.468C343.876 136.428 329.093 134.411 324.356 133.819L315.743 132.742L314.786 177.531L313.829 222.321L346.794 189.59L379.759 156.859L356.743 142.468Z" fill="white"/>
</g>
<defs>
<clipPath id="clip0">
<path d="M0 0H580V580H0V0Z" fill="white"/>
</clipPath>
</defs>
</svg>
